img/soon/dark-bg.svg

<svg width="60" height="21" viewBox="0 0 60 21" fill="none" xmlns="http://www.w3.org/2000/svg">
<circle cx="18.4499" cy="7.50002" r="2.1" fill="white"/>
<circle cx="19.0499" cy="6.90005" r="2.1" fill="#002738"/>
<path d="M12.075 3.30005L12.1991 3.60343L12.3998 3.86255L12.075 3.81829L11.7503 3.86255L11.951 3.60343L12.075 3.30005Z" fill="#C4C4C4"/>
<path d="M18.675 2.09998L18.799 2.40336L18.9997 2.66248L18.675 2.61821L18.3502 2.66248L18.5509 2.40336L18.675 2.09998Z" fill="#C4C4C4"/>
<path d="M24.45 1.65002L24.5989 2.01408L24.8397 2.32502L24.45 2.27191L24.0603 2.32502L24.3011 2.01408L24.45 1.65002Z" fill="#C4C4C4"/>
<path d="M26.4 6.44995L26.5489 6.81401L26.7897 7.12495L26.4 7.07184L26.0103 7.12495L26.2512 6.81401L26.4 6.44995Z" fill="#C4C4C4"/>
<path d="M10.875 7.19995L11.0486 7.62469L11.3296 7.98745L10.875 7.92548L10.4203 7.98745L10.7013 7.62469L10.875 7.19995Z" fill="#C4C4C4"/>
<mask id="mask0_437_375" style="mask-type:alpha" maskUnits="userSpaceOnUse" x="0" y="0" width="60" height="21">
<rect width="60" height="21" rx="10.5" fill="#111412"/>
</mask>
<g mask="url(#mask0_437_375)">
<path d="M17.7002 12.145C12.4202 9.50501 2.90017 12.145 -1.19983 13.795V22.57C13.7252 22.32 43.2302 21.535 41.8502 20.395C40.1252 18.97 35.0252 17.545 33.2252 17.245C31.7852 17.005 28.4752 18.195 27.0002 18.82C26.1002 17.695 22.9802 14.785 17.7002 12.145Z" fill="#004D56"/>
<path d="M1.87524 5.09505C2.83524 8.57505 2.27524 15.9451 1.87524 19.1951C3.00024 19.8951 5.11523 21.0551 4.57523 20.0951C3.90023 18.8951 3.60023 14.0951 3.90023 10.4201C4.14023 7.48005 6.20023 5.64505 7.20023 5.09505V3.97006C6.07523 4.99505 3.97523 6.74506 4.57523 5.54505C5.17523 4.34506 8.32523 -0.104945 9.82523 -2.17994C9.02523 -2.60494 7.06523 -2.70494 5.62523 0.295055C3.82523 4.04506 3.45024 3.22005 2.70024 -0.304947C1.95024 -3.82995 0.675242 0.745054 1.87524 5.09505Z" fill="black"/>
<path d="M33.6002 15.295L34.5002 22.345H32.4752L33.6002 15.295Z" fill="#C16337" stroke="#D48B68"/>
<path d="M13.4918 9.97009L15.2252 23.6201H11.3252L13.4918 9.97009Z" fill="#C16337" stroke="#D48B68"/>
<path d="M8.70035 20.4005C8.81104 20.505 8.92525 20.6013 9.04254 20.6889V23.1654C9.04254 23.2984 9.00649 23.426 8.94232 23.52C8.87814 23.6141 8.79111 23.6669 8.70035 23.6669C8.6096 23.6669 8.52256 23.6141 8.45839 23.52C8.39422 23.426 8.35817 23.2984 8.35817 23.1654V20.6889C8.47546 20.6013 8.58967 20.505 8.70035 20.4005V20.4005Z" fill="#A1A121"/>
<path d="M5.70191 12.5447C5.94945 11.6784 6.36613 10.9387 6.89961 10.4184C7.43309 9.89817 8.05956 9.62061 8.70033 9.62061C9.3411 9.62061 9.96758 9.89817 10.5011 10.4184C11.0345 10.9387 11.4512 11.6784 11.6987 12.5447C12.2314 12.9065 12.6827 13.483 13.0001 14.2069C13.3175 14.9307 13.4877 15.772 13.491 16.6325C13.4952 19.065 12.1479 21.0964 10.4925 21.1591C9.99025 21.1783 9.4924 21.0169 9.04252 20.6889V18.4569L10.9074 17.0964C10.9891 17.0366 11.0512 16.9316 11.0801 16.8046C11.0944 16.7417 11.1001 16.6753 11.0969 16.6092C11.0937 16.5431 11.0816 16.4786 11.0614 16.4193C11.0412 16.36 11.0132 16.3072 10.9791 16.2637C10.9449 16.2203 10.9052 16.1872 10.8623 16.1662C10.7757 16.1239 10.6812 16.1337 10.5995 16.1936L9.04252 17.3409V14.1372C9.04252 14.0042 9.00647 13.8766 8.94229 13.7825C8.87812 13.6885 8.79109 13.6356 8.70033 13.6356C8.60958 13.6356 8.52254 13.6885 8.45837 13.7825C8.3942 13.8766 8.35814 14.0042 8.35814 14.1372V15.8362L6.80119 14.6889C6.71951 14.6291 6.62496 14.6192 6.53832 14.6615C6.45169 14.7039 6.38008 14.7949 6.33924 14.9146C6.2984 15.0343 6.29168 15.1729 6.32056 15.2999C6.34943 15.4269 6.41154 15.5319 6.49322 15.5917L8.35814 16.9522V20.6889C7.93273 20.9982 7.46428 21.1591 6.98939 21.1591H6.90812C5.25279 21.0964 3.90543 19.065 3.90971 16.6325C3.91294 15.772 4.08319 14.9307 4.40056 14.2069C4.71792 13.483 5.16929 12.9065 5.70191 12.5447V12.5447Z" fill="#A1A121"/>
<path d="M20.1752 21.6012C19.4757 17.4288 17.8579 10.4348 16.9821 15.8379C16.3243 19.8964 16.0713 21.2959 15.9991 21.6012H15.9786C15.971 21.6834 15.9752 21.7023 15.9991 21.6012H20.1752Z" fill="#000617"/>
<path d="M18.4519 16.3977C18.6994 15.8067 19.1161 15.302 19.6496 14.947C20.1831 14.5921 20.8096 14.4027 21.4503 14.4027C22.0911 14.4027 22.7176 14.5921 23.2511 14.947C23.7845 15.302 24.2012 15.8067 24.4487 16.3977C24.9814 16.6445 25.4327 17.0378 25.7501 17.5317C26.0675 18.0255 26.2377 18.5995 26.241 19.1865C26.2452 20.8461 24.8979 22.232 23.2425 22.2747C22.7403 22.2879 22.2424 22.1777 21.7925 21.9539V20.4312L23.6574 19.503C23.7391 19.4622 23.8012 19.3906 23.8301 19.3039C23.8444 19.261 23.8501 19.2158 23.8469 19.1707C23.8437 19.1255 23.8316 19.0815 23.8114 19.0411C23.7912 19.0006 23.7632 18.9646 23.7291 18.9349C23.6949 18.9053 23.6552 18.8827 23.6123 18.8684C23.5257 18.8395 23.4312 18.8463 23.3495 18.8871L21.7925 19.6698V17.4841C21.7925 17.3934 21.7565 17.3063 21.6923 17.2422C21.6281 17.178 21.5411 17.1419 21.4503 17.1419C21.3596 17.1419 21.2725 17.178 21.2084 17.2422C21.1442 17.3063 21.1081 17.3934 21.1081 17.4841V18.6433L19.5512 17.8605C19.4695 17.8197 19.375 17.813 19.2883 17.8418C19.2017 17.8707 19.1301 17.9328 19.0892 18.0145C19.0484 18.0962 19.0417 18.1907 19.0706 18.2774C19.0994 18.364 19.1615 18.4356 19.2432 18.4765L21.1081 19.4046V21.9539C20.6827 22.165 20.2143 22.2748 19.7394 22.2747H19.6581C18.0028 22.232 16.6554 20.8461 16.6597 19.1865C16.6629 18.5995 16.8332 18.0255 17.1506 17.5317C17.4679 17.0378 17.9193 16.6445 18.4519 16.3977V16.3977Z" fill="#A1A121"/>
<path d="M5.77521 19.464C4.70109 13.045 2.2166 2.28498 0.871618 10.5974C-0.138664 16.8413 -0.527093 18.9944 -0.63806 19.464H-0.66951C-0.681131 19.5904 -0.674822 19.6196 -0.63806 19.464H5.77521Z" fill="#11825A"/>
<path d="M5.77521 19.464C4.70109 13.045 2.2166 2.28498 0.871618 10.5974C-0.473366 18.9099 -0.716211 19.972 -0.66951 19.464H5.77521Z" stroke="#A1A121"/>
<path d="M19.7252 26.814C18.651 20.395 16.1666 9.63496 14.8216 17.9474C13.8113 24.1913 13.4229 26.3444 13.3119 26.814H13.2804C13.2688 26.9404 13.2751 26.9696 13.3119 26.814H19.7252Z" fill="#11825A"/>
<path d="M19.7252 26.814C18.651 20.395 16.1666 9.63496 14.8216 17.9474C13.4766 26.2598 13.2337 27.322 13.2804 26.814H19.7252Z" stroke="#A1A121"/>
<path d="M29.1902 21.5856C29.2025 21.6109 29.2217 21.6323 29.2455 21.6472C29.2694 21.6621 29.297 21.67 29.3252 21.67H30.9752V22.42C30.9752 22.4598 30.991 22.4979 31.0191 22.5261C31.0472 22.5542 31.0854 22.57 31.1252 22.57C31.1649 22.57 31.2031 22.5542 31.2312 22.5261C31.2593 22.4979 31.2752 22.4598 31.2752 22.42V21.67H32.9252C32.9532 21.6699 32.9806 21.662 33.0044 21.6471C33.0281 21.6322 33.0472 21.611 33.0595 21.5858C33.0718 21.5606 33.0768 21.5325 33.0739 21.5046C33.0711 21.4768 33.0604 21.4503 33.0433 21.4281L32.1827 20.32H32.6252C32.6532 20.3199 32.6806 20.312 32.7044 20.2971C32.7281 20.2822 32.7472 20.261 32.7595 20.2358C32.7718 20.2106 32.7768 20.1825 32.7739 20.1546C32.7711 20.1268 32.7604 20.1003 32.7433 20.0781L31.2433 18.1281C31.2292 18.1102 31.2113 18.0957 31.1909 18.0857C31.1704 18.0757 31.1479 18.0706 31.1252 18.0706C31.1024 18.0706 31.0799 18.0757 31.0595 18.0857C31.039 18.0957 31.0211 18.1102 31.007 18.1281L29.507 20.0781C29.4899 20.1003 29.4792 20.1268 29.4764 20.1546C29.4735 20.1825 29.4785 20.2106 29.4908 20.2358C29.5031 20.261 29.5222 20.2822 29.546 20.2971C29.5697 20.312 29.5971 20.3199 29.6252 20.32H30.0677L29.207 21.4281C29.1898 21.4502 29.1791 21.4766 29.1761 21.5045C29.1731 21.5323 29.178 21.5604 29.1902 21.5856Z" fill="black"/>
<path d="M21.3899 19.3114C21.4022 19.3707 21.4214 19.4207 21.4453 19.4557C21.4692 19.4907 21.4968 19.5092 21.5249 19.5092H23.1749V21.267C23.1749 21.3602 23.1907 21.4496 23.2189 21.5156C23.247 21.5815 23.2851 21.6185 23.3249 21.6185C23.3647 21.6185 23.4029 21.5815 23.431 21.5156C23.4591 21.4496 23.4749 21.3602 23.4749 21.267V19.5092H25.1249C25.1529 19.509 25.1804 19.4904 25.2041 19.4555C25.2279 19.4206 25.247 19.3709 25.2593 19.3119C25.2716 19.2529 25.2766 19.187 25.2737 19.1216C25.2708 19.0563 25.2602 18.9942 25.243 18.9423L24.3824 16.3451H24.8249C24.8529 16.3449 24.8804 16.3263 24.9041 16.2914C24.9279 16.2566 24.947 16.2068 24.9593 16.1478C24.9716 16.0888 24.9766 16.0229 24.9737 15.9576C24.9708 15.8922 24.9602 15.8301 24.943 15.7782L23.443 11.2079C23.429 11.1659 23.4111 11.1319 23.3906 11.1085C23.3702 11.0851 23.3477 11.073 23.3249 11.073C23.3022 11.073 23.2797 11.0851 23.2592 11.1085C23.2388 11.1319 23.2208 11.1659 23.2068 11.2079L21.7068 15.7782C21.6896 15.8301 21.679 15.8922 21.6762 15.9576C21.6733 16.0229 21.6783 16.0888 21.6906 16.1478C21.7029 16.2068 21.722 16.2566 21.7457 16.2914C21.7695 16.3263 21.7969 16.3449 21.8249 16.3451H22.2674L21.4068 18.9423C21.3896 18.994 21.3789 19.056 21.3759 19.1212C21.3729 19.1864 21.3778 19.2523 21.3899 19.3114Z" fill="#11825A"/>
<path d="M35.211 18.7938C35.3195 18.5347 35.5022 18.3135 35.736 18.1579C35.9699 18.0023 36.2445 17.9193 36.5254 17.9193C36.8062 17.9193 37.0809 18.0023 37.3147 18.1579C37.5486 18.3135 37.7312 18.5347 37.8397 18.7938C38.0732 18.902 38.2711 19.0744 38.4102 19.2909C38.5493 19.5074 38.6239 19.759 38.6254 20.0163C38.6272 20.7438 38.0366 21.3513 37.311 21.3701C37.0908 21.3758 36.8726 21.3275 36.6754 21.2294V20.5619L37.4929 20.1551C37.5287 20.1372 37.5559 20.1058 37.5686 20.0678C37.5748 20.049 37.5773 20.0291 37.5759 20.0094C37.5745 19.9896 37.5692 19.9703 37.5604 19.9526C37.5515 19.9348 37.5392 19.919 37.5243 19.906C37.5093 19.8931 37.4919 19.8831 37.4731 19.8769C37.4351 19.8642 37.3937 19.8672 37.3579 19.8851L36.6754 20.2282V19.2701C36.6754 19.2303 36.6596 19.1921 36.6314 19.164C36.6033 19.1359 36.5651 19.1201 36.5254 19.1201C36.4856 19.1201 36.4474 19.1359 36.4193 19.164C36.3912 19.1921 36.3754 19.2303 36.3754 19.2701V19.7782L35.6929 19.4351C35.6571 19.4172 35.6156 19.4142 35.5776 19.4269C35.5397 19.4395 35.5083 19.4668 35.4904 19.5026C35.4725 19.5384 35.4695 19.5798 35.4822 19.6178C35.4948 19.6558 35.5221 19.6872 35.5579 19.7051L36.3754 20.1119V21.2294C36.1889 21.322 35.9835 21.3701 35.7754 21.3701H35.7397C35.0141 21.3513 34.4235 20.7438 34.4254 20.0163C34.4268 19.759 34.5014 19.5074 34.6405 19.2909C34.7796 19.0744 34.9775 18.902 35.211 18.7938V18.7938Z" fill="#11825A"/>
<path d="M26.2502 20.6244C26.3184 20.6683 26.3888 20.7088 26.4611 20.7457V21.7872C26.4611 21.8431 26.4389 21.8968 26.3993 21.9363C26.3598 21.9759 26.3061 21.9981 26.2502 21.9981C26.1942 21.9981 26.1406 21.9759 26.101 21.9363C26.0615 21.8968 26.0392 21.8431 26.0392 21.7872V20.7457C26.1116 20.7088 26.182 20.6683 26.2502 20.6244V20.6244Z" fill="#C16337"/>
<path d="M24.4018 17.3206C24.5544 16.9563 24.8113 16.6452 25.1401 16.4264C25.469 16.2076 25.8552 16.0908 26.2502 16.0908C26.6452 16.0908 27.0314 16.2076 27.3602 16.4264C27.6891 16.6452 27.9459 16.9563 28.0985 17.3206C28.4268 17.4727 28.7051 17.7152 28.9007 18.0196C29.0964 18.3241 29.2013 18.6779 29.2033 19.0397C29.2059 20.0628 28.3754 20.9171 27.355 20.9434C27.0453 20.9515 26.7384 20.8836 26.4611 20.7457V19.807L27.6107 19.2349C27.6611 19.2097 27.6994 19.1655 27.7172 19.1121C27.726 19.0857 27.7295 19.0578 27.7275 19.03C27.7255 19.0022 27.7181 18.975 27.7056 18.9501C27.6932 18.9252 27.6759 18.9029 27.6549 18.8847C27.6338 18.8664 27.6094 18.8525 27.5829 18.8436C27.5295 18.8258 27.4712 18.83 27.4209 18.8552L26.4611 19.3377V17.9903C26.4611 17.9344 26.4389 17.8807 26.3993 17.8412C26.3598 17.8016 26.3061 17.7794 26.2502 17.7794C26.1942 17.7794 26.1406 17.8016 26.101 17.8412C26.0615 17.8807 26.0392 17.9344 26.0392 17.9903V18.7049L25.0795 18.2224C25.0291 18.1972 24.9708 18.193 24.9174 18.2108C24.864 18.2286 24.8199 18.2669 24.7947 18.3173C24.7695 18.3676 24.7654 18.4259 24.7832 18.4793C24.801 18.5327 24.8393 18.5769 24.8896 18.602L26.0392 19.1742V20.7457C25.777 20.8758 25.4882 20.9435 25.1955 20.9434H25.1454C24.125 20.9171 23.2944 20.0628 23.2971 19.0397C23.299 18.6779 23.404 18.3241 23.5996 18.0196C23.7953 17.7152 24.0735 17.4727 24.4018 17.3206V17.3206Z" fill="#C16337"/>
<path d="M62.2218 27.8951C61.2618 31.3751 61.8218 38.7451 62.2218 41.9951C61.0968 42.6951 58.9818 43.8551 59.5218 42.8951C60.1968 41.6951 60.4968 36.8951 60.1968 33.2201C59.9568 30.2801 57.8968 28.4451 56.8968 27.8951V26.7701C58.0218 27.7951 60.1218 29.5451 59.5218 28.3451C58.9218 27.1451 55.7718 22.6951 54.2718 20.6201C55.0718 20.1951 57.0318 20.0951 58.4718 23.0951C60.2718 26.8451 60.6468 26.0201 61.3968 22.4951C62.1468 18.9701 63.4218 23.5451 62.2218 27.8951Z" fill="#C16337"/>
</g>
</svg>

<svg width="60" height="21" viewBox="0 0 60 21" fill="none" xmlns="http://www.w3.org/2000/svg"><circle cx="18.45" cy="7.5" r="2.1" fill="#fff"/><circle cx="19.05" cy="6.9" r="2.1" fill="#002738"/><path d="M12.075 3.3l.124.303.2.26-.324-.045-.325.045.201-.26.124-.303zm6.6-1.2l.124.303.2.26-.324-.045-.325.044.2-.259.125-.303zm5.775-.45l.149.364.24.311-.389-.053-.39.053.241-.31.149-.365zm1.95 4.8l.149.364.24.311-.389-.053-.39.053.241-.311.149-.364zm-15.525.75l.174.425.28.362-.454-.062-.455.062.281-.362.174-.425z" fill="#C4C4C4"/><mask id="mask0_437_375" style="mask-type:alpha" maskUnits="userSpaceOnUse" x="0" y="0" width="60" height="21"><rect width="60" height="21" rx="10.5" fill="#111412"/></mask><g mask="url(#mask0_437_375)"><path d="M17.7 12.145c-5.28-2.64-14.8 0-18.9 1.65v8.775c14.925-.25 44.43-1.035 43.05-2.175-1.725-1.425-6.825-2.85-8.625-3.15-1.44-.24-4.75.95-6.225 1.575-.9-1.125-4.02-4.035-9.3-6.675z" fill="#004D56"/><path d="M1.875 5.095c.96 3.48.4 10.85 0 14.1 1.125.7 3.24 1.86 2.7.9-.675-1.2-.975-6-.675-9.675.24-2.94 2.3-4.775 3.3-5.325V3.97C6.075 4.995 3.975 6.745 4.575 5.545c.6-1.2 3.75-5.65 5.25-7.725-.8-.425-2.76-.525-4.2 2.475-1.8 3.75-2.175 2.925-2.925-.6s-2.025 1.05-.825 5.4z" fill="#000"/><path d="M33.6 15.295l.9 7.05h-2.025l1.125-7.05zM13.492 9.97l1.733 13.65h-3.9l2.167-13.65z" fill="#C16337" stroke="#D48B68"/><path d="M8.7 20.4c.111.105.225.201.343.289v2.476a.649.649 0 01-.1.355c-.065.094-.152.147-.243.147-.09 0-.177-.053-.242-.147a.638.638 0 01-.1-.355V20.69c.117-.088.232-.184.342-.288z" fill="#A1A121"/><path d="M5.702 12.545c.247-.867.664-1.606 1.198-2.127.533-.52 1.16-.797 1.8-.797.641 0 1.268.277 1.801.797.534.52.95 1.26 1.198 2.127.532.361.984.938 1.301 1.662.318.724.488 1.565.491 2.425.004 2.433-1.343 4.464-2.998 4.527-.503.02-1-.142-1.45-.47v-2.232l1.864-1.36a.494.494 0 00.173-.292.727.727 0 00-.019-.386.528.528 0 00-.082-.155.343.343 0 00-.117-.098.247.247 0 00-.262.028L9.043 17.34v-3.204a.639.639 0 00-.1-.354c-.065-.095-.152-.147-.243-.147-.09 0-.177.053-.242.147a.639.639 0 00-.1.354v1.7l-1.557-1.148a.247.247 0 00-.263-.027.426.426 0 00-.199.253.722.722 0 00-.018.385.494.494 0 00.172.292l1.865 1.36v3.737c-.425.31-.894.47-1.369.47h-.08c-1.656-.063-3.004-2.094-3-4.526a6.158 6.158 0 01.492-2.426c.317-.724.768-1.3 1.3-1.662z" fill="#A1A121"/><path d="M20.175 21.601c-.7-4.172-2.317-11.166-3.193-5.763-.658 4.058-.91 5.458-.983 5.763h-.02c-.008.082-.004.101.02 0h4.176z" fill="#000617"/><path d="M18.452 16.398a3.251 3.251 0 015.997 0 3.092 3.092 0 011.792 2.788c.004 1.66-1.343 3.046-2.998 3.089-.503.013-1-.097-1.45-.321V20.43l1.864-.928a.344.344 0 10-.308-.616l-1.556.783v-2.186a.342.342 0 10-.685 0v1.16l-1.557-.784a.345.345 0 00-.308.617l1.865.928v2.549a3.08 3.08 0 01-1.369.32h-.08c-1.656-.042-3.004-1.428-3-3.088a3.092 3.092 0 011.793-2.788z" fill="#A1A121"/><path d="M5.775 19.464C4.701 13.045 2.217 2.285.872 10.597c-1.01 6.244-1.4 8.397-1.51 8.867H-.67c-.011.126-.005.156.032 0h6.413z" fill="#11825A"/><path d="M5.775 19.464C4.701 13.045 2.217 2.285.872 10.597-.473 18.91-.716 19.972-.67 19.464h6.445z" stroke="#A1A121"/><path d="M19.725 26.814c-1.074-6.419-3.558-17.179-4.903-8.867-1.01 6.244-1.4 8.397-1.51 8.867h-.032c-.011.126-.005.156.032 0h6.413z" fill="#11825A"/><path d="M19.725 26.814c-1.074-6.419-3.558-17.179-4.903-8.867-1.345 8.313-1.588 9.375-1.542 8.867h6.445z" stroke="#A1A121"/><path d="M29.19 21.586a.15.15 0 00.135.084h1.65v.75a.15.15 0 00.3 0v-.75h1.65a.15.15 0 00.118-.242l-.86-1.108h.442a.15.15 0 00.118-.242l-1.5-1.95a.152.152 0 00-.118-.057.15.15 0 00-.118.057l-1.5 1.95a.15.15 0 00.118.242h.443l-.861 1.108a.15.15 0 00-.017.158z" fill="#000"/><path d="M21.39 19.311a.4.4 0 00.055.145c.024.035.052.053.08.053h1.65v1.758c0 .093.016.183.044.249.028.066.066.103.106.103.04 0 .078-.038.106-.103a.659.659 0 00.044-.249v-1.758h1.65c.028 0 .055-.019.08-.053a.407.407 0 00.054-.144.779.779 0 00-.016-.37l-.86-2.597h.442c.028 0 .055-.019.08-.054a.407.407 0 00.054-.143.778.778 0 00-.016-.37l-1.5-4.57a.292.292 0 00-.052-.1c-.02-.023-.043-.035-.066-.035-.023 0-.045.012-.066.035a.294.294 0 00-.052.1l-1.5 4.57a.778.778 0 00-.016.37.409.409 0 00.055.143c.024.035.05.054.079.054h.442l-.86 2.597a.784.784 0 00-.017.37zm13.821-.517a1.425 1.425 0 012.629 0 1.355 1.355 0 01.785 1.222 1.359 1.359 0 01-1.314 1.354 1.349 1.349 0 01-.636-.14v-.668l.818-.407a.151.151 0 00-.135-.27l-.683.343v-.958a.15.15 0 10-.3 0v.508l-.682-.343a.15.15 0 10-.135.27l.817.407v1.117a1.35 1.35 0 01-.6.141h-.035a1.359 1.359 0 01-1.315-1.354 1.356 1.356 0 01.786-1.222z" fill="#11825A"/><path d="M26.25 20.624c.068.044.139.085.211.122v1.041a.21.21 0 11-.422 0v-1.041a2.42 2.42 0 00.211-.122z" fill="#C16337"/><path d="M24.402 17.32a2.004 2.004 0 013.697 0 1.906 1.906 0 011.104 1.72 1.91 1.91 0 01-1.848 1.903c-.31.008-.617-.06-.894-.197v-.939l1.15-.572a.212.212 0 00-.19-.38l-.96.483V17.99a.21.21 0 10-.422 0v.715l-.96-.483a.212.212 0 10-.19.38l1.15.572v1.572c-.262.13-.55.198-.844.197h-.05a1.91 1.91 0 01-1.848-1.903 1.906 1.906 0 011.105-1.72zm37.82 10.575c-.96 3.48-.4 10.85 0 14.1-1.125.7-3.24 1.86-2.7.9.675-1.2.975-6 .675-9.675-.24-2.94-2.3-4.775-3.3-5.325V26.77c1.125 1.025 3.225 2.775 2.625 1.575-.6-1.2-3.75-5.65-5.25-7.725.8-.425 2.76-.525 4.2 2.475 1.8 3.75 2.175 2.925 2.925-.6s2.025 1.05.825 5.4z" fill="#C16337"/></g></svg>
